img/recomendation/8.svg

<svg width="44" height="44" viewBox="0 0 44 44" fill="none" xmlns="http://www.w3.org/2000/svg">
<g id="ic:sharp-factory">
<path id="Vector" d="M40.3333 18.3333V40.3333H3.66667V18.3333L16.5 12.8333V16.5L25.6667 12.8333V18.3333H40.3333ZM31.5333 15.5833L33 3.66667H38.5L39.9667 15.5833H31.5333ZM20.1667 33H23.8333V25.6667H20.1667V33ZM12.8333 33H16.5V25.6667H12.8333V33ZM31.1667 25.6667H27.5V33H31.1667V25.6667Z" fill="#13023E"/>
</g>
</svg>

<svg width="44" height="44" viewBox="0 0 44 44" fill="none" xmlns="http://www.w3.org/2000/svg"><g id="ic:sharp-factory"><path id="Vector" d="M40.333 18.333v22H3.667v-22l12.833-5.5V16.5l9.167-3.667v5.5h14.666zm-8.8-2.75L33 3.667h5.5l1.467 11.916h-8.434zM20.167 33h3.666v-7.333h-3.666V33zm-7.334 0H16.5v-7.333h-3.667V33zm18.334-7.333H27.5V33h3.667v-7.333z" fill="#13023E"/></g></svg>
